X: 1
T:Maid Behind The Bar, The
M:4/4
L:1/8
Q:220
C:Traditional
S:From Bog Carrot Sessions
R:Reel
K:D
"D"FAAB AFED|FAAB ABde|"Bm"fBBA Bcde|"Bm"fBBA "A"BcdA|!
"D"FAAB AFED|"D"FAAB ABde|"Bm"fBBA "G"BcdB|"A"AFEF "D"D4:|!
|:"D"faab afde|fdad bdad|"Em"efga bgef|"A"gebe gfeg|!
"D"fgaf bfaf|defd efde|"Bm"fBBA "G"BcdB|"A"AFEF "D"D4  :|
% Output from ABC2Win  Version 2.1  on 2/10/98
